public/brand/soundcloud.svg

<svg id="Layer_1" style="enable-background:new 0 0 124.5 14.1;" version="1.1" viewBox="0 0 124.5 14.1" x="0px" xml:space="preserve" xmlns="http://www.w3.org/2000/svg" xmlns:xlink="http://www.w3.org/1999/xlink" y="0px">
<style type="text/css">
	.st0{clip-path:url(#SVGID_2_);fill:url(#SVGID_3_);}
</style>
<g>
<defs>
<path d="M0.2,8.5L0,10.3l0.2,1.8c0,0.1,0.1,0.1,0.1,0.1c0.1,0,0.1-0.1,0.1-0.1l0.3-1.8L0.4,8.5
			c0-0.1-0.1-0.1-0.1-0.1S0.2,8.4,0.2,8.5 M1.4,7.4l-0.3,2.9l0.3,2.9c0,0.1,0.1,0.1,0.1,0.1c0.1,0,0.1-0.1,0.1-0.1L2,10.3L1.6,7.4
			c0-0.1-0.1-0.1-0.1-0.1c0,0,0,0,0,0C1.5,7.3,1.4,7.4,1.4,7.4 M5.2,7L5,10.3l0.2,3.5c0,0.1,0.1,0.2,0.2,0.2s0.2-0.1,0.2-0.2L6,10.3
			L5.7,7c0-0.1-0.1-0.2-0.2-0.2C5.3,6.8,5.2,6.9,5.2,7 M2.7,6.8l-0.3,3.5l0.3,3.3c0,0.1,0.1,0.2,0.2,0.2c0,0,0.1-0.1,0.1-0.2
			l0.3-3.3L3,6.8c0-0.1-0.1-0.2-0.2-0.2C2.8,6.7,2.7,6.7,2.7,6.8 M3.9,6.7l-0.3,3.6l0.3,3.4c0,0.1,0.1,0.2,0.2,0.2s0.2-0.1,0.2-0.2
			l0.3-3.4L4.3,6.7c0-0.1-0.1-0.2-0.2-0.2S4,6.6,3.9,6.7 M6.5,4.9l-0.3,5.4l0.3,3.5c0,0.1,0.1,0.2,0.2,0.2C6.9,14,7,13.9,7,13.8
			l0.3-3.5L7,4.9c0-0.1-0.1-0.2-0.2-0.2C6.6,4.7,6.5,4.8,6.5,4.9 M7.8,3.7l-0.2,6.6l0.2,3.5c0,0.2,0.1,0.3,0.3,0.3
			c0.1,0,0.3-0.1,0.3-0.3l0.3-3.5L8.4,3.7c0-0.2-0.1-0.3-0.3-0.3C7.9,3.4,7.8,3.5,7.8,3.7 M69.5,3.3v3.8v2c-0.1-0.2-0.4-0.7-0.6-1
			l-3.2-4.8H64v9.1h1.8v-4v-2c0.1,0.2,0.4,0.7,0.6,1l3.3,5h1.6V3.3H69.5z M75.5,5.1h1c1.9,0,2.7,0.9,2.7,2.8c0,1.7-0.9,2.8-2.8,2.8
			h-0.9V5.1z M73.7,12.4h2.7c2.3,0,4.7-1.3,4.7-4.5c0-3.3-1.9-4.5-4.5-4.5h-2.9V3.3V12.4z M91.6,3.3v9.1h5.5v-1.8h-3.6V3.3H91.6z
			 M119,5.1h1c1.9,0,2.7,0.9,2.7,2.8c0,1.7-0.9,2.8-2.8,2.8H119V5.1z M117.2,12.4h2.7c2,0,4.1-1,4.6-3.4V6.7
			c-0.4-2.4-2.1-3.3-4.4-3.3h-2.9V3.3V12.4z M36.5,5.9c0,1.8,1.2,2.3,2.8,2.7c1.7,0.4,2,0.6,2,1.2c0,0.7-0.5,1-1.6,1
			c-0.9,0-1.7-0.3-2.3-1L36.1,11c0.7,1,2,1.7,3.5,1.7c2.5,0,3.6-1.2,3.6-2.9c0-2-1.6-2.5-3-2.8c-1.4-0.3-1.8-0.5-1.8-1.1
			c0-0.4,0.3-0.8,1.3-0.8c0.8,0,1.5,0.3,2.1,0.9l1.3-1.3c-0.9-0.9-1.9-1.4-3.3-1.4c-0.1,0-0.2,0-0.3,0C37.8,3.3,36.5,4.3,36.5,5.9
			 M46.5,7.9c0-1.6,0.6-2.9,2.1-2.9s2.1,1.3,2.1,2.9c0,1.6-0.6,2.9-2.1,2.9S46.5,9.5,46.5,7.9 M44.6,7.9c0,2.8,1.5,4.7,3.9,4.7
			c2.5,0,4-1.9,4-4.7c0-2.8-1.5-4.7-4-4.7C46.1,3.2,44.6,5.1,44.6,7.9 M59.9,3.2L59.9,3.2v5.2c0,1.5-0.7,2.4-1.9,2.4
			s-1.9-0.9-1.9-2.4V3.3h-1.8v5.1c0,2.6,1.5,4.1,3.7,4.1c2.3,0,3.7-1.5,3.7-4.2V3.2H59.9z M82.6,7.9c0,2.9,1.6,4.7,4,4.7
			c1.7,0,2.7-0.8,3.4-2.1l-1.5-0.9c-0.5,0.8-1,1.2-1.8,1.2c-1.4,0-2.2-1.2-2.2-2.9c0-1.7,0.8-2.9,2.1-2.9c0.8,0,1.3,0.4,1.7,1
			L90,5.2c-0.6-1.2-1.6-2-3.3-2C84.3,3.2,82.6,5.1,82.6,7.9 M99.8,7.9c0-1.6,0.6-2.9,2.1-2.9c1.5,0,2.1,1.3,2.1,2.9
			c0,1.6-0.6,2.9-2.1,2.9C100.4,10.8,99.8,9.5,99.8,7.9 M97.9,7.9c0,2.8,1.5,4.7,3.9,4.7c2.5,0,3.9-1.9,3.9-4.7
			c0-2.8-1.5-4.7-3.9-4.7C99.4,3.2,97.9,5.1,97.9,7.9 M113.1,3.2L113.1,3.2v5.2c0,1.5-0.7,2.4-1.9,2.4c-1.2,0-1.9-0.9-1.9-2.4V3.3
			h-1.8v5.1c0,2.6,1.5,4.1,3.7,4.1c2.3,0,3.7-1.5,3.7-4.2V3.2H113.1z M13.1,3.4l-0.2,6.9l0.2,3.3c0,0.2,0.2,0.4,0.4,0.4
			s0.4-0.2,0.4-0.4l0.2-3.3l-0.2-7c0-0.2-0.2-0.4-0.4-0.4C13.2,3,13.1,3.1,13.1,3.4 M9.1,3.1l-0.2,7.2l0.2,3.4
			c0,0.2,0.1,0.3,0.3,0.3c0.2,0,0.3-0.1,0.3-0.3l0.2-3.4L9.7,3.1c0-0.2-0.1-0.3-0.3-0.3C9.2,2.8,9.1,3,9.1,3.1 M11.7,3.1l-0.2,7.2
			l0.2,3.4c0,0.2,0.2,0.4,0.4,0.4c0.2,0,0.4-0.2,0.4-0.4l0.2-3.4l-0.2-7.2c0-0.2-0.2-0.4-0.4-0.4C11.9,2.7,11.7,2.9,11.7,3.1
			 M10.4,2.9l-0.2,7.4l0.2,3.4c0,0.2,0.1,0.3,0.3,0.3s0.3-0.1,0.3-0.3l0.2-3.4L11,2.9c0-0.2-0.2-0.3-0.3-0.3
			C10.6,2.6,10.4,2.7,10.4,2.9 M14.4,2l-0.2,8.3l0.2,3.3c0,0.2,0.2,0.4,0.4,0.4s0.4-0.2,0.4-0.4l0.2-3.3L15.2,2
			c0-0.2-0.2-0.4-0.4-0.4S14.4,1.8,14.4,2 M15.8,1.3l-0.2,9l0.2,3.3c0,0.2,0.2,0.4,0.4,0.4c0.2,0,0.4-0.2,0.4-0.4l0.2-3.3l-0.2-9
			c0-0.2-0.2-0.4-0.4-0.4c0,0-0.1,0-0.1,0C15.9,0.9,15.8,1.1,15.8,1.3 M17.4,0.4C17.1,0.5,17,0.6,17,0.9v12.7c0,0.2,0.2,0.4,0.4,0.5
			h11.1c2.2,0,4-1.8,4-4c0-2.2-1.8-4-4-4c-0.5,0-1.1,0.1-1.5,0.3C26.7,2.8,23.7,0,20,0c-0.2,0-0.3,0-0.5,0C18.8,0,18.1,0.2,17.4,0.4
			" id="SVGID_1_"></path>
</defs>
<clipPath id="SVGID_2_">
<use style="overflow:visible;" href="#SVGID_1_"></use>
</clipPath>
<linearGradient gradientTransform="matrix(0 62.1556 -62.1556 0 940.2602 -35.9781)" gradientUnits="userSpaceOnUse" id="SVGID_3_" x1="0" x2="1" y1="14.126" y2="14.126">
<stop offset="0" style="stop-color:#F8A01D"></stop>
<stop offset="0.7128" style="stop-color:#F26E23"></stop>
<stop offset="1" style="stop-color:#EF5826"></stop>
</linearGradient>
<rect class="st0" height="14.1" width="124.5" x="0" y="0"></rect>
</g>
</svg>

<svg width="33" height="15" viewBox="0 0 33 15" fill="none" xmlns="http://www.w3.org/2000/svg">
<path d="M0.2 8.5L0 10.3L0.2 12.1C0.2 12.2 0.3 12.2 0.3 12.2C0.4 12.2 0.4 12.1 0.4 12.1L0.7 10.3L0.4 8.5C0.4 8.4 0.3 8.4 0.3 8.4C0.3 8.4 0.2 8.4 0.2 8.5ZM1.4 7.4L1.1 10.3L1.4 13.2C1.4 13.3 1.5 13.3 1.5 13.3C1.6 13.3 1.6 13.2 1.6 13.2L2 10.3L1.6 7.4C1.6 7.3 1.5 7.3 1.5 7.3L1.4 7.4ZM5.2 7L5 10.3L5.2 13.8C5.2 13.9 5.3 14 5.4 14C5.5 14 5.6 13.9 5.6 13.8L6 10.3L5.7 7C5.7 6.9 5.6 6.8 5.5 6.8C5.3 6.8 5.2 6.9 5.2 7ZM2.7 6.8L2.4 10.3L2.7 13.6C2.7 13.7 2.8 13.8 2.9 13.8C2.9 13.8 3 13.7 3 13.6L3.3 10.3L3 6.8C3 6.7 2.9 6.6 2.8 6.6C2.8 6.7 2.7 6.7 2.7 6.8ZM3.9 6.7L3.6 10.3L3.9 13.7C3.9 13.8 4 13.9 4.1 13.9C4.2 13.9 4.3 13.8 4.3 13.7L4.6 10.3L4.3 6.7C4.3 6.6 4.2 6.5 4.1 6.5C4 6.5 4 6.6 3.9 6.7ZM6.5 4.9L6.2 10.3L6.5 13.8C6.5 13.9 6.6 14 6.7 14C6.9 14 7 13.9 7 13.8L7.3 10.3L7 4.9C7 4.8 6.9 4.7 6.8 4.7C6.6 4.7 6.5 4.8 6.5 4.9ZM7.8 3.7L7.6 10.3L7.8 13.8C7.8 14 7.9 14.1 8.1 14.1C8.2 14.1 8.4 14 8.4 13.8L8.7 10.3L8.4 3.7C8.4 3.5 8.3 3.4 8.1 3.4C7.9 3.4 7.8 3.5 7.8 3.7ZM13.1 3.4L12.9 10.3L13.1 13.6C13.1 13.8 13.3 14 13.5 14C13.7 14 13.9 13.8 13.9 13.6L14.1 10.3L13.9 3.3C13.9 3.1 13.7 2.9 13.5 2.9C13.2 3 13.1 3.1 13.1 3.4ZM9.1 3.1L8.9 10.3L9.1 13.7C9.1 13.9 9.2 14 9.4 14C9.6 14 9.7 13.9 9.7 13.7L9.9 10.3L9.7 3.1C9.7 2.9 9.6 2.8 9.4 2.8C9.2 2.8 9.1 3 9.1 3.1ZM11.7 3.1L11.5 10.3L11.7 13.7C11.7 13.9 11.9 14.1 12.1 14.1C12.3 14.1 12.5 13.9 12.5 13.7L12.7 10.3L12.5 3.1C12.5 2.9 12.3 2.7 12.1 2.7C11.9 2.7 11.7 2.9 11.7 3.1ZM10.4 2.9L10.2 10.3L10.4 13.7C10.4 13.9 10.5 14 10.7 14C10.9 14 11 13.9 11 13.7L11.2 10.3L11 2.9C11 2.7 10.8 2.6 10.7 2.6C10.6 2.6 10.4 2.7 10.4 2.9ZM14.4 2L14.2 10.3L14.4 13.6C14.4 13.8 14.6 14 14.8 14C15 14 15.2 13.8 15.2 13.6L15.4 10.3L15.2 2C15.2 1.8 15 1.6 14.8 1.6C14.6 1.6 14.4 1.8 14.4 2ZM15.8 1.3L15.6 10.3L15.8 13.6C15.8 13.8 16 14 16.2 14C16.4 14 16.6 13.8 16.6 13.6L16.8 10.3L16.6 1.3C16.6 1.1 16.4 0.9 16.2 0.9H16.1C15.9 0.9 15.8 1.1 15.8 1.3ZM17.4 0.4C17.1 0.5 17 0.6 17 0.9V13.6C17 13.8 17.2 14 17.4 14.1H28.5C30.7 14.1 32.5 12.3 32.5 10.1C32.5 7.9 30.7 6.1 28.5 6.1C28 6.1 27.4 6.2 27 6.4C26.7 2.8 23.7 0 20 0C19.8 0 19.7 0 19.5 0C18.8 0 18.1 0.2 17.4 0.4Z" fill="#FF6201"/>
</svg>
